X: 9
T: Liao bujian meizi shan dangzhule
L: 1/8
M: 2/4
K: A
b e'b2 [I:setbarnb 1]| 
b a f B | 
B b b c'/ a/ | 
f4 | 
b e'b2 | 
fe2B | 
B a f e | 
B4 |]

@@@ Tune index: 8883
